X:1
T:O ignati mortali
T:O ignati mortali
T:Tomaso Cecchino
T:Source : Canti Spirituali a uno, due et tre voci + BC ---Venetia---G.Vincenti---1613. Editor : André Vierendeels (27/10/16).
T:Notes : Original clefs : C1, F4 See also "Secunda parte: D'arco ha in vecce" (same composer)
T:prima parte
T:©
T:©
T:©
C:Tomaso Cecchino
Z:©
%%score 1 2
L:1/8
Q:1/4=99
M:4/4
K:C
V:1 treble nm="Soprano" snm="S"
V:2 bass nm="MusicXML Part"
V:1
 G8 | d2 A3 A A2 | B4 B4 | z4 B3 c | d6 ^FG | A4 A4 | z8 | z2 A3 B c2 | d4 c4 | B2 d2 ABcd | %10
w: O|i- gna- ti mor-|ta- li,|tan- to|v'a- ma'il Si-|gno- re,||ch'e- bro d'a-|mor per|voi s'e fat- * * *|
 e2 B2 d4- | d2 ^cB c4 |[M:2/4] d4 :: A4 |[M:4/4] B4 G2 GG | GG c2 c4 | A2 AA AA d2 | d2 d2 edcB | %18
w: * to'A- mo-||re.|Ec-|co, ec- co che|par- go- let- to,|ec- co che par- go- let-|to, e'i- gnu- do- lo mi-|
 A2 A2 z2 A2 | ^GABc B4 | A4 z4 | e2 e2 e2 dc | d8 | d2 d2 d2 cB | c8 | B3 c d4 | ^F3 G A4 | G8 | %28
w: ra- te e'i-|gnu- do lo mi- ra-||con' le lu- ci'al fal-|lir,|con le lu- ci'al fal-|lir,|al fal- lir,|al fal- lir|no-|
 ^F3 A A4 | G8 :| %30
w: stro ben da-|te.|
V:2
"^Bass""^BC" E,8 | B,,2 D,3 ^C, D,2 | G,,4 G,,4 | G,3 F, E,4 | B,,3 C, D,4 |"^B" D,8 | %6
w: O|i- gna- ti mor-|ta- li,|tan- to v'a-|mai'il Si- gno-|re,|
 z2 A,,3 B,, C,2 | D,4 C,4 | B,,2 G,,2 A,,B,,C,D, | E,2 B,,2 D,2 C,B,, |"^B" A,,2 G,,2 B,,2 D,2 | %11
w: ch'e- bro d'a-|mor per|voi s'e fat- * * *|* to'A- mo- * *|ro, s'e fat- to'A-|
 A,,8 |[M:2/4] D,4 :: D,4 |[M:4/4] G,,2 G,,G,, G,,G,, C,2 |"^B" C,4 A,,2 A,,A,, | A,,A,, D,2 D,4 | %17
w: mo-|re,|Ec-|co che _ par- go- let-|to, ec- co che|par- go- let- to,|
 B,,4 C,4 | D,4 E,2 F,2 | E,8 |"^B" A,,4 A,2 A,2 | A,2 G,F, G,4- | G,4 G,2 G,2 | G,2 F,E, F,4- | %24
w: ei- gnu-|do lo mi-|ra-|te, con le|lu- ci'al fal- lir,|_ con le|lu- ci'al fal- lir,|
 F,4 E,3 F, |"^B" G,4 B,,3 C, | D,4 C,4- | C,2 C,2 B,,4 | D,8 | G,,8 :| %30
w: _ al fal-|lir, al- fal-|lir no-|* stro ben|da-|te.|

